X:110
T:no name
R:polka
S:Brendan Begley
H:See also #136
Z:id:hn-polka-110
M:2/4
L:1/8
K:Edor
BE FE|BE FE|D>E FA|DE FA|BE FE|BE FE|D>F AD|FE E2:|
|:Be ed/e/|fe dA|Be ed/e/|fe d2|Be ed/e/|fe dA|BA dF|FE E2:|

